X: 06039
T: LAURA'S JIG
C: Bob McQuillen 27 July 82
B: Bob's Note Book 6 #39
%R: jig
Z: 2021 John Chambers <jc:trillian.mit.edu>
M: 6/8
L: 1/8
K: D
|:DFA ABd | efe d2f | efe dBd | AdB AFE |\
| DFA ABd | fed B2d | efe dBA | Bde fdd :|
|:faf efe | fed B2d | Add Bde | fef aba |\
| faf ede | fef d2B | ABd edB | ABA F2E :|
%%begintext align
%% Laura (Garand) Simonetta was one
%% of my favorite school girls in years
%% past - Happily, I see her occasionally
%% now-a-days, and she's still a great favorite
%% of her "Uncle Bob" - with love to you, Laura -
%%endtext

%%sep 1 1 500

%%sep 1 1 500

